src/rounded/icons/fi-rr-copy.svg

<svg id="Layer_1" height="512" viewBox="0 0 24 24" width="512" xmlns="http://www.w3.org/2000/svg" data-name="Layer 1"><path d="m15 20h-10a5.006 5.006 0 0 1 -5-5v-10a5.006 5.006 0 0 1 5-5h10a5.006 5.006 0 0 1 5 5v10a5.006 5.006 0 0 1 -5 5zm-10-18a3 3 0 0 0 -3 3v10a3 3 0 0 0 3 3h10a3 3 0 0 0 3-3v-10a3 3 0 0 0 -3-3zm19 17v-13a1 1 0 0 0 -2 0v13a3 3 0 0 1 -3 3h-13a1 1 0 0 0 0 2h13a5.006 5.006 0 0 0 5-5z"/></svg>

<svg id="Layer_1" data-name="Layer 1" xmlns="http://www.w3.org/2000/svg" viewBox="0 0 24 24"><path d="M15,20H5a5.006,5.006,0,0,1-5-5V5A5.006,5.006,0,0,1,5,0H15a5.006,5.006,0,0,1,5,5V15A5.006,5.006,0,0,1,15,20ZM5,2A3,3,0,0,0,2,5V15a3,3,0,0,0,3,3H15a3,3,0,0,0,3-3V5a3,3,0,0,0-3-3ZM24,19V6a1,1,0,0,0-2,0V19a3,3,0,0,1-3,3H6a1,1,0,0,0,0,2H19A5.006,5.006,0,0,0,24,19Z"/></svg>
